X: 161
M: 6/8
L: 1/8
K: D
|: c/d/ |\
ecA AcA | cBA dAF | BGB AGF | BGE Ecd |\
ecA AcA | cBA dAF | dcB AFd | AFD D2 :|

